X:1
T:Les Sept Ivresses
T:La Gloire
T:Les Sept Ivresses
T:3. La Gloire
T:Holmès, Augusta Mary Anne
T:idem
T:OpenScore (CC0)
T:OpenScore (CC0)
T:OpenScore (CC0)
T:OpenScore (CC0)
T:OpenScore (CC0)
T:OpenScore (CC0)
T:OpenScore (CC0)
C:Holmès, Augusta Mary Anne
Z:(Composer)
Z:OpenScore (CC0)
%%score 1 { ( 2 3 ) | ( 4 5 ) }
L:1/8
Q:1/4=100
M:4/4
K:C
V:1 treble nm="Chant\nVoice"
V:2 bass nm="Piano"
V:3 bass 
V:4 bass 
V:5 bass 
V:1
"^Allegro" z8 | z8 | z8 | z8 | z8 | z8 | z8 | z8 | z8 | z8 | z8 | z8 | z4 z2 z!f! _e || %13
w: ||||||||||||Que|
[K:Ab]"^più lento"[Q:1/4=92][Q:1/4=94] (a2 e c A) z/!mf! e/ =e ^d/ ^c/ | =e2 =B2 z B B _B/ A/ | %15
w: veu- lent ces cris? Quelle  est cet- te|fou- le Qui jus- qu'à mes|
"^cresc." e _c/ c/ _B3/2 A/ e e/ z/4 c/4 c B/ A/ | e _c/ e/ =e3/2 e/ (f4 ||[M:2/4] _g2)!p! g2 || %18
w: pieds comme un fleu- ve rou- le, Fai- sant é- cu-|\- mer sur sa clair- re hou-|\- le Des|
[M:4/4][Q:1/4=114]"^Moderato" (=g>e B4) f2 | e4- e2 z2 | z4 z2 z A | e2 B3/2 B/ e4- | %22
w: ger- * bes de|fleurs? _|J'en-|\- tends des hour- ras|
 e2 c3/2 c/ e3 c ||[K:Bb] f4- f2 z c | f2 d3/2 d/ f3 f | ^f2 ^c3/2 c/ f2 c3/2 c/ | %26
w: _ et je vois des|pleurs! _ Quel|mot re- ten- tit en|fol- les cla- meurs, Se mê-|
 ^f3 ^d f2 (3d^c =B |!f! (_g4 f2 e2) | B4- B2 z B | %29
w: lant aux voix d'in _ nom-|\- bra- * bles|chœurs _ Que|
"^allarg.   _     _     _     _     _"[Q:1/4=108] f2 (3:2:4d[Q:1/4=102] B z/ F/[Q:1/4=96] c4 | %30
w: scan _ dent la ly-|
"^a tempo"[Q:1/4=114] B2- B2 z B/ B/ _d2 | z2 z _d f2 z!f! f | a4- a2 z A || %33
w: re! _ C'est mon nom!|Mon nom! mon|nom! _ Le|
[K:Db]!ff!"^Maestoso" !>!g2 !>!a !>!g (3!>!f3/2 !>!e/ !>!d A F/ A/ | c2 c2 z2!f! f2- | %35
w: peuple en dé- li- re Les rois pros- ter-|nés, tous, tous,|
 f d/ B/ f4- f f | g2!<(! (3Bd g!<)! =g3 g | %37
w: _ peu- vent li- re Aux|cieux é- * cla- tants que|
"^allarg.   _          _          _          _          _          _"[Q:1/4=110] (!>!b!>!a) !>!=g[Q:1/4=102] !>!_g f d/!mf! A/[Q:1/4=114] B2- || %38
w: l'au- * be dé- chi- re, Mon nom|
[M:2/4] B c2 e ||[M:4/4] d4- d z!p! (3A z d | (c2 A) z/ e/ d z A2 | f e2 A _g2 f2 || %42
w: _ a- do-|\- ré! _ Ah! plus|loin, _ plus haut vers|l'E- ther sa- cré, D'un|
[M:3/4][Q:1/4=118]"^accel." e d/ e/[Q:1/4=119] d2[Q:1/4=120] g2 | %43
w: su- blime * élan je|
 f[Q:1/4=122] e/ f/[Q:1/4=124] e2[Q:1/4=125] a2 | %44
w: m'em- por- te- rai Si|
[Q:1/4=126] g f/ g/[Q:1/4=128] f2!f![Q:1/4=130] b2 |[Q:1/4=132] a g/ a/ g2[Q:1/4=126]"^rall." f d | %46
w: bien que, vi- vant, J'au-|rai pé- né- tré l'é- ter-|
[Q:1/4=118] A f e4-[Q:1/4=115] |[Q:1/4=110] e4 A2[Q:1/4=100] || %48
w: \- nel mys- tê-|* re!|
[M:4/4]!pp!"^Très lent et très doux"[Q:1/4=80] f f e d (g c) (3B A e | (f4 A2) z e | %50
w: Oui! c'est le nec- tar qui me dé- sal-|\- tè- re Le|
 (3f e f e3/2 d/ g4 | f3 c =d2!pp! a2- | a g f e e d (3A F A | (B c2 d2 e f) !fermata!z/ f/ | %54
w: Nimbe é- lar- git mon  front|ra- di- eux, Et|_ je suis as- sis loin de l'hum- ble|ter- * * * re, Plus|
"^rall.     _      _     _     _     _     _     _     _     _     _     _"!p! b8[Q:1/4=75][Q:1/4=70] | %55
w: haut|
 B2 e6 |[Q:1/4=96]"^dim." d8 | z8 | z8 | z8[Q:1/4=90][Q:1/4=84] | z8[Q:1/4=76][Q:1/4=66] | %61
w: que les|dieux!|||||
 z8[Q:1/4=30][Q:1/4=15] | z8 |] %63
w: ||
V:2
!p! [E,^G,]/z/4E,/4 E,-!<(! (6:4:6(E,/^D,/E,/!<)!!>(!F,/G,/F,/)!>)! [E,G,]/z/4E,/4 E,- (6:4:6(E,/!<(!D,/E,/F,/G,/F,/)!<)! | %1
!p! .E,/!<(!.^G,/.B,/.F/ .E/.B,/.G,/.^D,/ .E,/.G,/.B,/.E/ .F/.C/.A,/!<)!.F,/ | %2
!f! [^F,^A,]/z/4F,/4 F,- (6:4:6(F,/E,/F,/G,/A,/G,/) [F,A,]/z/4F,/4 F,- (6:4:6(F,/E,/F,/G,/A,/G,/) | %3
"_cresc." .^F,/.^A,/.^C/.G/ .F/.C/.A,/.^E,/ .F,/.A,/.C/.F/ .G/.D/.B,/.G,/ | %4
[K:treble] [_A,C_E_A]/>[CEA]/ [CEA] [EAc]/>[EAc]/ [EAc] [Ac_e]/>[Ace]/ [Ace] [ce_a]/>[cea]/ [cea] | %5
!ff! [c_e=a]/!>(!_a/g/_g/ f/e/_e/d/ _d/c/B/_B/ A/_G/_E/!>)!C/ | %6
!mp! [_B,DF_B]/>[DFB]/!<(! [DFB] [FBd]/>[FAd]/ [FAd] [Bdf]/>[Bdf]/ [Bdf]!<)! [df_b]/>[dfb]/ [dfb] | %7
!ff! [df=b]/!>(!_b/a/_a/ g/_g/f/e/ _e/d/_d/c/ =B/_A/F/!>)!D/ | %8
!f!!<(! [_E_Ac]/>[EGc]/ [EGc] [Ac_e]/>[Ace]/ [Ace] z!ff! !>![ce_a]!<)! !>![cfac']2 | %9
!f!!<(! [_Ac_e]/>[Ace]/ [Ace] [ce_a]/>[cea]/ [cea] z!<)!!ff! !>![eac'] !>![fac'f']2 | %10
"_cresc." [_E_Ac]/>[EAc]/ [EAc] [Ac_e]/>[Ace]/ [Ace] [ce_a]/>[cea]/ [cea] [eac']/>[eac']/ [eac'] | %11
!ff!!8va(! [gc'_e']/>[gc'e']/ [gc'e'] [gc'e']/>[gc'e']/ [gc'e'] [gc'e']/>[gc'e']/ [gc'e'] [gc'e']/>[gc'e']/ [gc'e'] | %12
"_marcato" [gc'_e']/>[gc'e']/ [gc'e'] [gc'e']/>[gc'e']/ [gc'e'] [g_d'e']/>[gd'e']/ [gd'e'] [gd'e']/>[gd'e']/ [gd'e'] || %13
[K:Ab]!ff! [ac'a']!8va)! z!p! !//-!e2 c2 !///-!=d =B | !//-!=d2 =B2 !//-!d2 B2 | %15
"_cresc." !///-!e _c !///-!=d =B !///-!e c !///-!d B | !///-!e _c !///-!=d B !//-!d2 B2 || %17
[M:2/4] [ce] z z2 || %18
[M:4/4] (6:4:6(b/=g/f/e/f/g/) b/z/!arpeggio![gg']/ z/ (6:4:6(b/a/f/=d/f/a/) c'/z/[ff']/ z/ | %19
!pp!!<(! (6:4:6(e/d/B/G/B/d/)!<)! f/z/!arpeggio![Bb]/ z/!<(! (6:4:6(e/d/B/G/B/d/)!<)! f/z/!arpeggio![Bb]/ z/ | %20
!<(! e!arpeggio![cc']-!<)! (3([cc']ba (3efe (3cBA) | %21
!p! (6:4:6(e/!<(!d/B/G/B/d/)!<)!!mp! f/z/!arpeggio![Bb]/ z/ (6:4:6(e/d/B/G/B/d/) f/z/!arpeggio![Bb]/ z/ | %22
!<(! e!arpeggio![cc']-!<)! (3([cc']ba (3efe (3cBA) || %23
[K:Bb]!<(!"_cresc." (6:4:6(f/e/c/=A/c/e/)!<)! g/z/!arpeggio![cc']/ z/ (6:4:6(f/e/c/A/c/e/) g/z/!arpeggio![cc']/ z/ | %24
!<(! f !arpeggio![dd']- (3([dd']c'!<)!b!>(! (3fgf (3dc!>)!B) | %25
 (6:4:6(^f/=e/^c/^A/c/e/) ^g/z/!arpeggio![c^c']/ z/ (6:4:6(f/e/c/A/c/e/) g/z/!arpeggio![cc']/ z/ | %26
!<(! ^f!arpeggio![^d^d']-!<)! (3([dd']^c'=b (3f^gf (3^d^c=B) | %27
!f!!<(! (3(_e/c/=A/)_g/ z/ (3(g/e/c/)a/ z/ (3(a/g/e/)c'/ z/ (3(c'/a/g/)e'/!<)! z/ | %28
!f! b!arpeggio![gg']- (3([gg']f'e' (3bc'b (3gfe | %29
"_allarg.   _     _     _     _     _" [Bd]) z z2 !arpeggio![Gcef] z !arpeggio![Acef] z | %30
 z[K:bass] =E,/4G,/4B,/4_D/4[K:treble]!<(! (6:4:6=E/4G/4B/4 _d/4E/4G/4(6:4:6B/4d/4=e/4g/4b/4_d'/4!<)! =e'2 z2 | %31
 x8 |!f! !arpeggio![Acfa] z!8va(! !arpeggio![ac'f'a']!8va)! z z4 || %33
[K:Db]!ff!!8va(! !>![gc'g']!>![bc'b']!>![ac'a']!>![gc'g'] !>![fd'f']!8va)! z [Adf] z | %34
 !arpeggio![=EBc=e] z !arpeggio![cebc'] z !arpeggio![F=Acf] z !arpeggio![f=ac'f'] z | %35
!f! !arpeggio![FBdf] z !arpeggio![fbd'f'] z z4 | %36
!f!!8va(! !arpeggio![gbd'g']2 z2 !arpeggio![=gbd'=g']2 z2 | %37
!ff!"_allarg.   _          _          _          _          _          _          _" !>![bc'b']!>![ac'a']!>![=gc'=g']!>![_gc'_g'] !>![fd'f']!8va)! z!p! [B,DEG]2- || %38
[M:2/4] [B,DEG] [CGA] z2 ||[M:4/4]!pp! z f'e'd' (3(aba) (3(fed) |!p! (([c_g]4 [_cf]4-)) | %41
 [_cf] g3 (3gab [f_c']2- ||[M:3/4]"_accel.  e  cresc." [f_c']2 (3b_c'_d' e'2- | e'2 (3c'd'e' f'2- | %44
 f'2!8va(! (3d'e'f' g'2- | g'2 (3!>!e'!>!f'!>!g'"_rall." a'2- |!pp! a'2 (b' c''2 d''- | %47
 d'' =d''2 e''2 =e'') ||[M:4/4]!pp! !arpeggio![f'a'f'']!8va)!(f'e'd'{/g} g'c' (3(bae')) | %49
!pp!{fa} (f'2 e'd'{/g} g'c' (3bae') | %50
!8va(! (!arpeggio![f_c'f']2 !arpeggio![_c'_c'']2 !arpeggio![bb']2 (3a'g'd') | %51
!<(! ([=af']2 g'=a' [=d'b']2!<)! c''=d'' | %52
!>(! !arpeggio![e'e'']2 !arpeggio![f'f'']!arpeggio![g'g'']!>)!!pp! !arpeggio![a'a'']2)!8va)! z2 | %53
!pp! ((!arpeggio![C-E-GB]6 [CEF=A])) z | x x/!>(! E/4G/4B/4d/4e/4g/4b/4d'/4e'/4g'/4 b'!>)! z z2 | %55
 z2 !arpeggio![CGA]2 z4 |!pp!{/f} (f'2 e'd' (3aba (3fed) | %57
!<(! !arpeggio![Gca] (5:4:5(g/4e/4c/4e/4g/4 b/)!<)!!mp! z/!pp! !arpeggio![ee']/ z/!<(! !arpeggio![Gca] (5:4:5(g/4e/4c/4e/4g/4 b/)!<)!!mp! z/!p! !arpeggio![ee']/ z/ | %58
!p! (3!arpeggio![dfa] z!8va(! (!arpeggio![f'f'']-!>(! (3[f'f'']e''d'' (3a'b'a' (3f'e'd')!>)! | %59
 (3:2:2z2!>(! (!arpeggio![a'd''a'']- (3[a'd''a'']f''e'' (3d''e''d'' (3a'f'd') | %60
"_rall.   e   dim.   _          _          _         _          _          _          _         _          _          _          _" a'/ z/ (e'/4d'/4a/4f/4 f'/) z/ (g'/4f'/4d'/4a/4 a'/) z/ (b'/4a'/4f'/4d'/4 d''/) z/ (e''/4d''/4a'/4f'/4 | %61
 f''2) z (e''/4d''/4a'/4f'/4 f''2) z (e''/4d''/4a'/4f'/4!>)! |!ppp! f''2)!8va)! z2 !fermata!z4 |] %63
V:3
 B, z x2 B, z x2 | x8 | [^C^F] z x2 C z x2 | x8 |[K:treble] x8 | x8 | x8 | x8 | x8 | x8 | x8 | %11
!8va(! x8 | x8 ||[K:Ab] x!8va)! x7 | x8 | x8 | x8 ||[M:2/4] x4 ||[M:4/4] x8 | x8 | x8 | x8 | x8 || %23
[K:Bb] x8 | x8 | x8 | x8 | x8 | x8 | x8 | x[K:bass] x[K:treble] x6 | x8 | x2!8va(! x!8va)! x5 || %33
[K:Db]!8va(! x5!8va)! x3 | x8 | x8 |!8va(! x8 | x5!8va)! x3 ||[M:2/4] x4 || %39
[M:4/4] [DFA]2- [DFA] z x4 | x8 | x d2 =c- c2 x2 ||[M:3/4] x2 _g2 g2- | g2 a2 a2- | %44
 a2!8va(! b2- b2- | b2 b2 d'2- | d'2 (!arpeggio!d'4 | c'2) z2 z2 ||[M:4/4] x!8va)! x7 | x8 | %50
!8va(! x8 | x8 | x6!8va)! x2 | x8 | x8 | x8 | x8 | x8 | x4/3!8va(! x20/3 | x8 | x8 | x8 | %62
 x2!8va)! x6 |] %63
V:4
 [E,,,E,,]2 z [=D,,,=D,,] [E,,,E,,]2 z [D,,,D,,] | %1
 [E,,,E,,]2 z z/ [F,,,F,,]/ [E,,,E,,] z [F,,,F,,] z | %2
 [^F,,,^F,,]2 z [E,,,E,,] [F,,,F,,]2 z [E,,,E,,] | %3
 [^F,,,^F,,]2 z z/ [G,,,G,,]/ [F,,,F,,] z [G,,,G,,] z | %4
 [_A,,,_A,,]/ z/ [C,_E,_A,] z [E,A,C] z [A,CE] z[K:treble] [C_E_A] | %5
!ped! [C_E=A]/_A/!ped-up!G/_G/ F/E/_E/D/ _D/C/B,/_B,/[K:bass] A,/_G,/_E,/C,/ | %6
 [_B,,,_B,,]/ z/ [D,F,_B,] z [F,B,D] z [B,DF] z[K:treble] [DF_B] | %7
!ped! [DF=B]/_B/A/!ped-up!_A/ G/_G/F/_F/ _E/D/_D/C/ =B,/_A,/F,/D,/ | %8
[K:bass] [_E,,_E,]2 z [E,_A,C] z !>![E,A,C] !>![F,A,C]2 | %9
 [_E,,_E,]2 z [E,_A,C] z !>![E,A,C] !>![F,A,C]2 | %10
 [_E,,_E,]/ z/ [E,_A,C]2[K:treble] [A,C_E]2 [CE_A]2 [EAc] | %11
[K:bass] [_E,,_E,] z[K:treble] !>![_EGc]4- !>![EGc]2 | !>!c!>!G !>!_E/>!>!F/!>!G !>!_B2 !>!E2 || %13
[K:Ab][K:bass] [A,,,A,,] z[K:treble] !//-!E2 A2 !///-!=E ^G | !//-!=E2 ^G2 !//-!E2 G2 | %15
 !///-!E A !///-!=E ^G !///-!_E _A !///-!=E ^G | !///-!_E A !///-!=E ^G !//-!F2 G2 || %17
[M:2/4] [^F=A] z z2 || %18
[M:4/4][K:bass] B,, !arpeggio![B,EG] z !arpeggio![B,EG] B,, !arpeggio![B,=DA] z !arpeggio![B,DA] | %19
!ped! E,,E,- E,!ped-up! !arpeggio![B,DEG]/ z/!ped! E,,E,- E,!ped-up! !arpeggio![B,DEG]/ z/ | %20
 E,,!ped! !arpeggio![E,A,C]- (3([E,A,C]B,A, (3E,F,E, (3CB,A,)!ped-up! | %21
 E,,E,- E, !arpeggio![B,DEG]/ z/ E,,E,- E, !arpeggio![B,DEG]/ z/ | %22
 E,,!ped! !arpeggio![E,A,C]- (3([E,A,C]B,A, (3E,F,E,!ped-up! (3CB,A,) || %23
[K:Bb] F,,F,- F, !arpeggio![G,A,CE]/ z/ F,,F,- F, !arpeggio![G,A,CE]/ z/ | %24
 F,, [F,B,D]- (3([F,B,D]CB, (3F,G,F, (3DCB,) | %25
 ^F,,^F,- F, !arpeggio![^G,^A,^C=E]/ z/ F,,F,- F, !arpeggio![G,^A,CE]/ z/ | %26
 ^F,, !arpeggio![^F,=B,^D]- (3([F,B,D]^CB, (3F,^G,F, (3^D^C=B,) | %27
[K:treble] z !arpeggio![A,CE_G] z !arpeggio![CEGA] z !arpeggio![EGAc] z !arpeggio![GAce] | %28
[K:bass]!ped! z !arpeggio![B,EG]- (3[B,EG]FE (3B,CB, (3G,F,E,!ped-up! | %29
 F, z z2 [F,,F,] z [F,,F,] z |!p!"^a tempo"!ped! (=E,,/4G,,/4B,,/4_D,/4) z z2!ped-up! z4 | %31
!ped! (9:8:9(F,,/4B,,/4_D,/4!<(![I:staff -1] F,/4B,/4_D/4F/4B/4_d/4!ped-up! (7:4:7f/F/B/d/f/b/_d'/!<)! f'2)[I:staff +1] x2 | %32
!ped! [A,,,A,,] z !arpeggio![A,CF] z!ped-up! z4 || %33
[K:Db] [A,,,A,,]/ z/ (3(A,/C/E/ G) z [D,,D,] z !arpeggio![A,DF] z | %34
 [C,,C,] z !arpeggio![G,B,C=E] z [F,,F,] z[K:treble] !arpeggio![CEF=A] z | %35
!ped! [B,B] z[K:treble] !arpeggio![DFBd]!ped-up! z z4 | %36
!ped! !arpeggio![B,DGB]2 z2!ped-up!!ped! !arpeggio![B,DE=GB]2 z2!ped-up! | %37
[K:bass] z2 !>![A,C=G]!>![A,EA] !>![A,DFA] z [A,,,A,,]2- ||[M:2/4] [A,,,A,,] [A,,,A,,] z2 || %39
[M:4/4] [D,,D,] (3(A,/D/F/ A2) [F,,F,] (3(A,/D/F/ A2) |[K:treble] [EA]4 [FA]4- | %41
 [FA] B2 A- A2 [Ad]2- ||[M:3/4] [Ad]2 d2 e2- | e2 e2 f2- | f2 f2 g2- | g2 x4 | x6 | %47
 !arpeggio![Ae_g]4 z2 || %48
[M:4/4][K:bass]!ped! [D,,D,] z/4 (A,/4D/4F/4 A)!ped-up! z [E,,E,] z/4 (A,/4C/4E/4 G) z | %49
!ped! [D,,D,] z/4 (A,/4D/4F/4 A)!ped-up! z!ped! [E,,E,] z/4 (A,/4C/4E/4 G)!ped-up! z | %50
!ped! [D,,D,] z/4 (A,/4D/4F/4 A)!ped-up! z!ped! [G,,G,] z/4 (B,/4D/4G/4 B)!ped-up! z | %51
!ped! [F,,F,][K:] z/4 (E/4G/4A/4 =c)!ped-up! z[K:bass]!ped! B,, z/4 (B,/4=D/4F/4 A)!ped-up! z | %52
!ped! [G,,G,] z/4 (B,/4D/4G/4 B)!ped-up! z[K:treble] !arpeggio![A,DFA]2 z2 |[K:bass] (A,6 =A,) z | %54
!pp!!ped! E,/4G,/4"^rall.   _          _          _          _          _          _          _"B,/4D/4 x/ x/!ped-up! x2 z4 | %55
 z2!pp! A,2 z4 | [D,,D,]!ped! z/4 (A,/4D/4F/4 A) z [F,,F,] z/4 (A,/4D/4F/4 A)!ped-up! z | %57
!ped! !arpeggio![E,,E,]2 z !arpeggio![B,CEG]/!ped-up! z/!ped! [A,,A,]2 z !arpeggio![B,CEG]/!ped-up! z/ | %58
!ped! (3:2:2z2 F- (3FED (3A,B,A, (3F,!ped-up!E,D,- | %59
!pp!!ped! (3D, z"^rall." (!arpeggio![A,DFA]- (3[A,DFA]FE (3DED (3A,!ped-up!F,D,) | %60
 A,2[K:treble]"_una corda"!ped! !arpeggio![DFAd]2!ped-up!!ped! !arpeggio![FAdf]2!ped-up!!ped! !arpeggio![Adfa]2!ped-up! | %61
!ped! !arpeggio![dfad']2!ped-up! z2!ped! !arpeggio![fad'f']2!ped-up! z2 | %62
!ped! !arpeggio![bd'f']2!ped-up! z2 !fermata!z4 |] %63
V:5
 x8 | x8 | x8 | x8 | x7[K:treble] x | x6[K:bass] x2 | x7[K:treble] x | x8 |[K:bass] x8 | x8 | %10
 x3[K:treble] x5 |[K:bass] x2[K:treble] x6 | x8 ||[K:Ab][K:bass] x2[K:treble] x6 | x8 | x8 | x8 || %17
[M:2/4] x4 ||[M:4/4][K:bass] x8 | x8 | x8 | x8 | x8 ||[K:Bb] x8 | x8 | x8 | x8 |[K:treble] x8 | %28
[K:bass] [B,,B,]4- [B,,B,]2 z2 | x8 | x8 | x z z2 z4 | x8 ||[K:Db] x8 | x6[K:treble] x2 | %35
 x2[K:treble] x6 | x8 |[K:bass] [A,,,A,,]4- [A,,,A,,]2 x2 ||[M:2/4] x4 ||[M:4/4] x8 | %40
[K:treble] x8 | x E2- E x2 x2 ||[M:3/4] x2 B4- | B2 c4- | c2 d4- | d2 [eg]2 !arpeggio![Adf]2- | %46
 [Adf]2 !arpeggio![=Gd=g]4 | x6 ||[M:4/4][K:bass] x8 | x8 | x8 | x[K:] x3[K:bass] x4 | %52
 x4[K:treble] x4 |[K:bass] x8 | x8 | x8 | x8 | x8 | [D,,D,]4- [D,,D,]2 z2 | D,,4- D,,2 z2 | %60
 x2[K:treble] x6 | x8 | x8 |] %63

